resources/svg/linux-o.svg

<svg xmlns="http://www.w3.org/2000/svg" viewBox="0 0 15 15" fill="none"><path d="M0.5 14.5L0.146447 14.1464C0.00344756 14.2894 -0.0393302 14.5045 0.0380602 14.6913C0.115451 14.8782 0.297769 15 0.5 15L0.5 14.5ZM1.15638 13.8436L0.802827 13.4901L0.802827 13.4901L1.15638 13.8436ZM14.5 14.5V15C14.7022 15 14.8845 14.8782 14.9619 14.6913C15.0393 14.5045 14.9966 14.2894 14.8536 14.1464L14.5 14.5ZM3.5 10.5L3.27639 10.0528C3.13264 10.1247 3.0322 10.2613 3.00646 10.4199C2.98071 10.5786 3.0328 10.7399 3.14645 10.8536L3.5 10.5ZM4.36951 10.0652L4.59311 10.5125V10.5125L4.36951 10.0652ZM10.6305 10.0652L10.4069 10.5125L10.6305 10.0652ZM11.5 10.5L11.8536 10.8536C11.9672 10.7399 12.0193 10.5786 11.9935 10.4199C11.9678 10.2613 11.8674 10.1247 11.7236 10.0528L11.5 10.5ZM4.08579 11.0858L4.43934 10.7322L4.08579 11.0858ZM0.853553 14.8536L1.50993 14.1972L0.802827 13.4901L0.146447 14.1464L0.853553 14.8536ZM2 13.014V6.5H1V13.014H2ZM13 6.5V13.014H14V6.5H13ZM13.4901 14.1972L14.1464 14.8536L14.8536 14.1464L14.1972 13.4901L13.4901 14.1972ZM14.5 14H0.5V15H14.5V14ZM13 13.014C13 13.4578 13.1763 13.8834 13.4901 14.1972L14.1972 13.4901C14.0709 13.3638 14 13.1926 14 13.014H13ZM7.5 1C10.5376 1 13 3.46243 13 6.5H14C14 2.91015 11.0899 0 7.5 0V1ZM2 6.5C2 3.46243 4.46243 1 7.5 1V0C3.91015 0 1 2.91015 1 6.5H2ZM1.50993 14.1972C1.82372 13.8834 2 13.4578 2 13.014H1C1 13.1926 0.929075 13.3638 0.802827 13.4901L1.50993 14.1972ZM3.72361 10.9472L4.59311 10.5125L4.1459 9.61803L3.27639 10.0528L3.72361 10.9472ZM10.4069 10.5125L11.2764 10.9472L11.7236 10.0528L10.8541 9.61803L10.4069 10.5125ZM11.1464 10.1464L10.5607 10.7322L11.2678 11.4393L11.8536 10.8536L11.1464 10.1464ZM4.43934 10.7322L3.85355 10.1464L3.14645 10.8536L3.73223 11.4393L4.43934 10.7322ZM7.5 12C6.35203 12 5.25108 11.544 4.43934 10.7322L3.73223 11.4393C4.73151 12.4386 6.08681 13 7.5 13V12ZM10.5607 10.7322C9.74892 11.544 8.64797 12 7.5 12V13C8.91319 13 10.2685 12.4386 11.2678 11.4393L10.5607 10.7322ZM4.59311 10.5125C6.42304 9.5975 8.57696 9.5975 10.4069 10.5125L10.8541 9.61803C8.74265 8.56231 6.25736 8.56231 4.1459 9.61803L4.59311 10.5125ZM7 6.5V7.5H8V6.5H7ZM4 7.5V6.5H3V7.5H4ZM5.5 9C4.67157 9 4 8.32843 4 7.5H3C3 8.88071 4.11929 10 5.5 10V9ZM7 7.5C7 8.32843 6.32843 9 5.5 9V10C6.88071 10 8 8.88071 8 7.5H7ZM5.5 5C6.32843 5 7 5.67157 7 6.5H8C8 5.11929 6.88071 4 5.5 4V5ZM5.5 4C4.11929 4 3 5.11929 3 6.5H4C4 5.67157 4.67157 5 5.5 5V4ZM11 6.5V7.5H12V6.5H11ZM9.5 9C8.67157 9 8 8.32843 8 7.5H7C7 8.88071 8.11929 10 9.5 10V9ZM11 7.5C11 8.32843 10.3284 9 9.5 9V10C10.8807 10 12 8.88071 12 7.5H11ZM9.5 5C10.3284 5 11 5.67157 11 6.5H12C12 5.11929 10.8807 4 9.5 4V5ZM9.5 4C8.11929 4 7 5.11929 7 6.5H8C8 5.67157 8.67157 5 9.5 5V4ZM5 7V8H6V7H5ZM9 7V8H10V7H9Z" fill="black"/></svg>

<svg xmlns="http://www.w3.org/2000/svg" viewBox="0 0 15 15" fill="none"><path d="M.5 14.5l-.354-.354A.5.5 0 00.5 15v-.5zm.656-.656l-.353-.354.353.354zM14.5 14.5v.5a.5.5 0 00.354-.854l-.354.354zm-11-4l-.224-.447a.5.5 0 00-.13.8L3.5 10.5zm.87-.435l.223.447-.223-.447zm6.26 0l-.223.447.223-.447zm.87.435l.354.354a.5.5 0 00-.13-.801l-.224.447zm-7.414.586l.353-.354-.353.354zM.854 14.854l.656-.657-.707-.707-.657.656.708.708zM2 13.014V6.5H1v6.514h1zM13 6.5v6.514h1V6.5h-1zm.49 7.697l.656.657.708-.708-.657-.656-.707.707zM14.5 14H.5v1h14v-1zm-1.5-.986c0 .444.176.87.49 1.183l.707-.707a.673.673 0 01-.197-.476h-1zM7.5 1A5.5 5.5 0 0113 6.5h1A6.5 6.5 0 007.5 0v1zM2 6.5A5.5 5.5 0 017.5 1V0A6.5 6.5 0 001 6.5h1zm-.49 7.697c.314-.314.49-.74.49-1.183H1c0 .179-.07.35-.197.476l.707.707zm2.214-3.25l.87-.434-.448-.895-.87.435.448.894zm6.683-.434l.87.434.447-.894-.87-.435-.447.894zm.74-.367l-.586.586.707.707.586-.585-.708-.708zm-6.708.586l-.585-.586-.708.708.586.585.707-.707zM7.5 12a4.328 4.328 0 01-3.06-1.268l-.708.707c1 1 2.355 1.561 3.768 1.561v-1zm3.06-1.268A4.328 4.328 0 017.5 12v1a5.328 5.328 0 003.768-1.56l-.707-.708zm-5.967-.22a6.5 6.5 0 015.814 0l.447-.894a7.5 7.5 0 00-6.708 0l.447.894zM7 6.5v1h1v-1H7zm-3 1v-1H3v1h1zM5.5 9A1.5 1.5 0 014 7.5H3A2.5 2.5 0 005.5 10V9zM7 7.5A1.5 1.5 0 015.5 9v1A2.5 2.5 0 008 7.5H7zM5.5 5A1.5 1.5 0 017 6.5h1A2.5 2.5 0 005.5 4v1zm0-1A2.5 2.5 0 003 6.5h1A1.5 1.5 0 015.5 5V4zM11 6.5v1h1v-1h-1zM9.5 9A1.5 1.5 0 018 7.5H7A2.5 2.5 0 009.5 10V9zM11 7.5A1.5 1.5 0 019.5 9v1A2.5 2.5 0 0012 7.5h-1zM9.5 5A1.5 1.5 0 0111 6.5h1A2.5 2.5 0 009.5 4v1zm0-1A2.5 2.5 0 007 6.5h1A1.5 1.5 0 019.5 5V4zM5 7v1h1V7H5zm4 0v1h1V7H9z" fill="currentColor"/></svg>
